public/icon/error.svg

<svg xmlns="http://www.w3.org/2000/svg" focusable="false" role="img" viewBox="0 0 20 20" fill="currentColor">
  <path fill-rule="evenodd" d="M1.55223 13.917L7.65265 3.359C8.70361 1.547 11.3129 1.547 12.3639 3.359L18.4522 13.917C19.4911 15.729 18.1864 18 16.0966 18H3.90784C1.81799 18 0.50127 15.729 1.55223 13.917ZM9.96452 11.7003C9.50548 11.6761 9.11892 11.3016 9.10684 10.8426L8.90148 7.36355C8.90148 7.07363 8.99812 6.79579 9.1914 6.57835C9.38468 6.36091 9.66252 6.24011 9.95244 6.22803C10.5927 6.22803 11.0759 6.68707 11.1 7.27899L10.9068 10.8426C10.8826 11.3258 10.496 11.7003 10.0128 11.7003H9.96452ZM10.0006 15.2517C9.28785 15.2517 8.70801 14.6718 8.70801 13.9591C8.70801 13.2464 9.28785 12.6665 10.0006 12.6665C10.7133 12.6665 11.2931 13.2464 11.2931 13.9591C11.2931 14.6839 10.7133 15.2517 10.0006 15.2517Z" clip-rule="evenodd"/>
</svg>

<svg xmlns="http://www.w3.org/2000/svg" viewBox="0 0 20 20" fill="currentColor" aria-hidden="true" focusable="false" role="img">
  <path fill-rule="evenodd" d="M1.552 13.917l6.1-10.558c1.052-1.812 3.66-1.812 4.712 0l6.088 10.558c1.04 1.812-.266 4.083-2.355 4.083H3.907c-2.089 0-3.406-2.271-2.355-4.083zM9.965 11.7c-.46-.024-.846-.398-.858-.857L8.9 7.363c0-.29.097-.567.29-.785.194-.217.472-.338.761-.35.64 0 1.124.46 1.148 1.051l-.193 3.564a.893.893 0 01-.894.857h-.048zM10 15.252c-.713 0-1.293-.58-1.293-1.293s.58-1.293 1.293-1.293c.712 0 1.292.58 1.292 1.293 0 .725-.58 1.293-1.292 1.293z" clip-rule="evenodd"/>
</svg>
